assets/sonr-icons/vault.svg

<svg xmlns="http://www.w3.org/2000/svg" width="24" height="24" fill="none"><path fill="currentColor" stroke="#000" d="M12 13.83a1.835 1.835 0 0 1 0-3.67c1.011 0 1.83.823 1.83 1.84 0 1.005-.817 1.83-1.83 1.83Z"/><path fill="currentColor" stroke="#000" d="M3.5 5.5H3v3.91h1.23c.566 0 1.02-.454 1.02-1.02V6.51c0-.563-.46-1.01-1.02-1.01zm0 9.08H3v3.92h1.23c.572 0 1.02-.47 1.02-1.02V15.6c0-.566-.454-1.02-1.02-1.02zM5.75 2.5h12.42a3.337 3.337 0 0 1 3.33 3.33v12.33a3.34 3.34 0 0 1-3.33 3.34H5.75a3.26 3.26 0 0 1-3.25-3.25V5.75A3.25 3.25 0 0 1 5.75 2.5Zm7.5 13.64a4.34 4.34 0 0 0 2.9-2.89A1.25 1.25 0 0 0 17.36 12c0-.683-.533-1.229-1.209-1.25a4.34 4.34 0 0 0-2.901-2.901A1.255 1.255 0 0 0 12 6.63c-.676 0-1.234.548-1.25 1.219a4.34 4.34 0 0 0-2.901 2.901A1.24 1.24 0 0 0 6.64 12a1.25 1.25 0 0 0 1.21 1.25 4.34 4.34 0 0 0 2.9 2.89c.017.673.574 1.22 1.25 1.22s1.234-.547 1.25-1.22Z"/></svg>

<svg xmlns="http://www.w3.org/2000/svg" width="24" height="24" fill="none" viewBox="0 0 24 24"><path fill="#000" stroke="#000" stroke-width="1" d="M12 13.83C10.988 13.83 10.17 13.005 10.17 12C10.17 10.984 10.989 10.16 12 10.16C13.011 10.16 13.83 10.983 13.83 12C13.83 13.005 13.013 13.83 12 13.83Z"/><path fill="#000" stroke="#000" stroke-width="1" d="M3.5 5.5H3V9.41H4.23C4.796 9.41 5.25 8.956 5.25 8.39V6.51C5.25 5.947 4.79 5.5 4.23 5.5H3.5ZM3.5 14.58H3V18.5H4.23C4.802 18.5 5.25 18.03 5.25 17.48V15.6C5.25 15.034 4.796 14.58 4.23 14.58H3.5ZM5.75 2.5H18.17C20.004 2.5 21.5 3.996 21.5 5.83V18.16C21.5 20.005 20.003 21.5 18.17 21.5H5.75C3.957 21.5 2.5 20.034 2.5 18.25V5.75C2.5 3.956 3.957 2.5 5.75 2.5ZM13.25 16.14C14.634 15.724 15.732 14.634 16.15 13.25C16.831 13.229 17.36 12.669 17.36 12C17.36 11.317 16.827 10.771 16.151 10.75C15.733 9.357 14.634 8.266 13.25 7.849C13.233 7.176 12.676 6.63 12 6.63C11.324 6.63 10.766 7.178 10.75 7.849C9.366 8.266 8.267 9.357 7.849 10.75C7.172 10.771 6.64 11.317 6.64 12C6.64 12.669 7.169 13.228 7.85 13.25C8.268 14.634 9.367 15.724 10.75 16.14C10.767 16.813 11.324 17.36 12 17.36C12.676 17.36 13.234 16.813 13.25 16.14Z"/></svg>
